X:521
T:Rucenitsa 2
O:Bulgaria
S:Loose photocopied sheet
Z:Nigel Gatherer
M:7/8
L:1/8
K:Bm
B2 BF Be^d | fBfg  f2 e | a2 ga gfe |    f2 ef _cBA |
B2 BF Be^d | fBfg  f2 e | a2 ga gfe | 1  f2 ef _cBA |
                                      2 ^dB_cA B^cd |
eA^de ede | ^dB_cA BFB  | eA^de ede |   ^dB_cA BFB  |
eA^de ede | ^dB_cA BFB  | Bc^de fge |    a2 ga afe  |
eA^de ede | ^dB_cA BFB  | eA^de ede |   ^dB_cA BFB  |
eA^de ede | ^dB_cA BFB  | Bc^de fge |   ^dB_cA B2  |]
<end>
<start>
